svg/account_off_outline.svg

<svg xmlns="http://www.w3.org/2000/svg" viewBox="0 0 24 24"><path d="m2.75 7 1.28-1.25L13.26 15 20 21.72 18.73 23l-3-3H4v-3c0-1.86 2.61-3.08 5.09-3.64zM20 17v2.18l-1.9-1.9V17c0-.26-.5-.65-1.3-1L14 13.18c2.71.45 6 1.73 6 3.82M5.9 17v1.1h7.93L10.72 15c-2.53.3-4.82 1.45-4.82 2M12 4a4 4 0 0 1 4 4c0 1.95-1.4 3.58-3.25 3.93L8.07 7.25A4.004 4.004 0 0 1 12 4m0 2a2 2 0 0 0-2 2 2 2 0 0 0 2 2 2 2 0 0 0 2-2 2 2 0 0 0-2-2"/></svg>

<?xml version="1.0" encoding="UTF-8"?><!DOCTYPE svg PUBLIC "-//W3C//DTD SVG 1.1//EN" "http://www.w3.org/Graphics/SVG/1.1/DTD/svg11.dtd"><svg xmlns="http://www.w3.org/2000/svg" xmlns:xlink="http://www.w3.org/1999/xlink" version="1.1" id="mdi-account-off-outline" width="24" height="24" viewBox="0 0 24 24"><path d="M2.75,7L4.03,5.75L13.26,15L20,21.72L18.73,23L15.73,20H4V17C4,15.14 6.61,13.92 9.09,13.36L2.75,7M20,17V19.18L18.1,17.28V17C18.1,16.74 17.6,16.35 16.8,16L14,13.18C16.71,13.63 20,14.91 20,17M5.9,17V18.1H13.83L10.72,15C8.19,15.3 5.9,16.45 5.9,17M12,4A4,4 0 0,1 16,8C16,9.95 14.6,11.58 12.75,11.93L8.07,7.25C8.42,5.4 10.05,4 12,4M12,6A2,2 0 0,0 10,8A2,2 0 0,0 12,10A2,2 0 0,0 14,8A2,2 0 0,0 12,6Z" /></svg>
